Icons/rename_me_best_music_player.svg

<svg viewBox="0 0 48 48" xmlns:xlink="http://www.w3.org/1999/xlink">
 <defs>
  <linearGradient id="0">
   <stop stop-opacity="0"/>
   <stop offset="1"/>
  </linearGradient>
  <linearGradient xlink:href="#0" id="1" gradientUnits="userSpaceOnUse" gradientTransform="translate(4e-7,-48)" y1="47" x2="0" y2="1"/>
  <clipPath id="2">
   <g transform="translate(0,-1004.3622)">
    <rect rx="4" y="1005.36" x="1" height="46" width="46" fill="#1890d0"/>
   </g>
  </clipPath>
  <clipPath id="3">
   <g transform="translate(0,-1004.3622)">
    <rect rx="4" y="1005.36" x="1" height="46" width="46" fill="#1890d0"/>
   </g>
  </clipPath>
 </defs>
 <g>
  <g transform="translate(0,-1004.3622)">
   <path d="m 5,1006.3622 c -2.216,0 -4,1.784 -4,4 l 0,37.25 c 0,2.216 1.784,4 4,4 l 38,0 c 2.216,0 4,-1.784 4,-4 l 0,-37.25 c 0,-2.216 -1.784,-4 -4,-4 l -38,0 z m -4,41.5 0,0.5 c 0,2.216 1.784,4 4,4 l 38,0 c 2.216,0 4,-1.784 4,-4 l 0,-0.5 c 0,2.216 -1.784,4 -4,4 l -38,0 c -2.216,0 -4,-1.784 -4,-4 z" opacity="0.02"/>
   <path d="m 1,1047.6122 0,0.25 c 0,2.216 1.784,4 4,4 l 38,0 c 2.216,0 4,-1.784 4,-4 l 0,-0.25 c 0,2.216 -1.784,4 -4,4 l -38,0 c -2.216,0 -4,-1.784 -4,-4 z" opacity="0.05"/>
   <rect width="46" height="46" x="1" y="1005.61" rx="4" opacity="0.1"/>
  </g>
 </g>
 <g>
  <g transform="translate(0,-1004.3622)">
   <rect rx="4" y="1005.36" x="1" height="46" width="46" fill="#f4c015"/>
  </g>
 </g>
 <g>
  <rect transform="scale(1,-1)" width="46" height="46" x="1" y="-46.998" rx="4" opacity="0.1" fill="url(#1)"/>
 </g>
 <g>
  <g clip-path="url(#2)">
   <g opacity="0.1">
    <g>
     <path d="M 21 19.941406 C 24.769531 17.242188 27.710938 16.59375 32 17.609375 L 32 27.667969 C 31.796875 28.066406 30.933594 30.015625 35 31.117188 L 35 11.351562 C 27.390625 10.660156 23.375 10.695312 18 14.175781 L 18 30 C 19.359375 27.949219 12.414062 34.839844 21 32.917969 Z M 21 19.941406 "/>
     <path d="M 21 33 C 21 35.210938 19.210938 37 17 37 C 14.789062 37 13 35.210938 13 33 C 13 30.789062 14.789062 29 17 29 C 19.210938 29 21 30.789062 21 33 Z M 21 33 "/>
     <path d="M 35 31 C 35 33.210938 33.210938 35 31 35 C 28.789062 35 27 33.210938 27 31 C 27 28.789062 28.789062 27 31 27 C 33.210938 27 35 28.789062 35 31 Z M 35 31 "/>
    </g>
   </g>
  </g>
 </g>
 <g>
  <g clip-path="url(#3)">
   <g transform="translate(0,-1)">
    <g>
     <path d="M 21 19.941406 C 24.769531 17.242188 27.710938 16.59375 32 17.609375 L 32 27.667969 C 31.796875 28.066406 30.933594 30.015625 35 31.117188 L 35 11.351562 C 27.390625 10.660156 23.375 10.695312 18 14.175781 L 18 30 C 19.359375 27.949219 12.414062 34.839844 21 32.917969 Z M 21 19.941406 " fill="#f9f9f9"/>
     <path d="M 21 33 C 21 35.210938 19.210938 37 17 37 C 14.789062 37 13 35.210938 13 33 C 13 30.789062 14.789062 29 17 29 C 19.210938 29 21 30.789062 21 33 Z M 21 33 " fill="#f9f9f9"/>
     <path d="M 35 31 C 35 33.210938 33.210938 35 31 35 C 28.789062 35 27 33.210938 27 31 C 27 28.789062 28.789062 27 31 27 C 33.210938 27 35 28.789062 35 31 Z M 35 31 " fill="#f9f9f9"/>
    </g>
   </g>
  </g>
 </g>
 <g>
  <g transform="translate(0,-1004.3622)">
   <path d="m 1,1043.3622 0,4 c 0,2.216 1.784,4 4,4 l 38,0 c 2.216,0 4,-1.784 4,-4 l 0,-4 c 0,2.216 -1.784,4 -4,4 l -38,0 c -2.216,0 -4,-1.784 -4,-4 z" opacity="0.1"/>
  </g>
 </g>
</svg>

<svg viewBox="0 0 48 48"><defs><linearGradient id="linearGradient3764" x1="1" x2="47" gradientUnits="userSpaceOnUse" gradientTransform="translate(-48.000001,0.00221467)"><stop stop-color="#e9b70b" stop-opacity="1"/><stop offset="1" stop-color="#f4c015" stop-opacity="1"/></linearGradient><clipPath id="clipPath-026910743"><g transform="translate(0,-1004.3622)"><rect rx="4" y="1005.36" x="1" height="46" width="46" fill="#1890d0"/></g></clipPath><clipPath id="clipPath-039514171"><g transform="translate(0,-1004.3622)"><rect rx="4" y="1005.36" x="1" height="46" width="46" fill="#1890d0"/></g></clipPath></defs><g><path d="m 1 43 l 0 0.25 c 0 2.216 1.784 4 4 4 l 38 0 c 2.216 0 4 -1.784 4 -4 l 0 -0.25 c 0 2.216 -1.784 4 -4 4 l -38 0 c -2.216 0 -4 -1.784 -4 -4 z m 0 0.5 l 0 0.5 c 0 2.216 1.784 4 4 4 l 38 0 c 2.216 0 4 -1.784 4 -4 l 0 -0.5 c 0 2.216 -1.784 4 -4 4 l -38 0 c -2.216 0 -4 -1.784 -4 -4 z" opacity="0.02"/><path d="m 1 43.25 l 0 0.25 c 0 2.216 1.784 4 4 4 l 38 0 c 2.216 0 4 -1.784 4 -4 l 0 -0.25 c 0 2.216 -1.784 4 -4 4 l -38 0 c -2.216 0 -4 -1.784 -4 -4 z" opacity="0.05"/><path d="m 1 43 l 0 0.25 c 0 2.216 1.784 4 4 4 l 38 0 c 2.216 0 4 -1.784 4 -4 l 0 -0.25 c 0 2.216 -1.784 4 -4 4 l -38 0 c -2.216 0 -4 -1.784 -4 -4 z" opacity="0.1"/></g><g><rect width="46" height="46" x="-47" y="1" rx="4" transform="matrix(0,-1,1,0,0,0)" fill="url(#linearGradient3764)" fill-opacity="1"/></g><g><g clip-path="url(#clipPath-026910743)"><g opacity="0.1"><!-- color: #f4c015 --><g><path d="m 21 19.941 c 3.77 -2.699 6.711 -3.348 11 -2.332 l 0 10.06 c -0.203 0.398 -1.066 2.348 3 3.449 l 0 -19.766 c -7.609 -0.691 -11.625 -0.656 -17 2.824 l 0 15.824 c 1.359 -2.051 -5.586 4.84 3 2.918 m 0 -12.977" fill="#000"/><path d="m 21 33 c 0 2.211 -1.789 4 -4 4 c -2.211 0 -4 -1.789 -4 -4 c 0 -2.211 1.789 -4 4 -4 c 2.211 0 4 1.789 4 4 m 0 0" fill="#000"/><path d="m 35 31 c 0 2.211 -1.789 4 -4 4 c -2.211 0 -4 -1.789 -4 -4 c 0 -2.211 1.789 -4 4 -4 c 2.211 0 4 1.789 4 4 m 0 0" fill="#000"/></g></g></g></g><g><g clip-path="url(#clipPath-039514171)"><g transform="translate(0,-1)"><!-- color: #f4c015 --><g><path d="m 21 19.941 c 3.77 -2.699 6.711 -3.348 11 -2.332 l 0 10.06 c -0.203 0.398 -1.066 2.348 3 3.449 l 0 -19.766 c -7.609 -0.691 -11.625 -0.656 -17 2.824 l 0 15.824 c 1.359 -2.051 -5.586 4.84 3 2.918 m 0 -12.977" fill="#f9f9f9"/><path d="m 21 33 c 0 2.211 -1.789 4 -4 4 c -2.211 0 -4 -1.789 -4 -4 c 0 -2.211 1.789 -4 4 -4 c 2.211 0 4 1.789 4 4 m 0 0" fill="#f9f9f9"/><path d="m 35 31 c 0 2.211 -1.789 4 -4 4 c -2.211 0 -4 -1.789 -4 -4 c 0 -2.211 1.789 -4 4 -4 c 2.211 0 4 1.789 4 4 m 0 0" fill="#f9f9f9"/></g></g></g></g><g><g transform="translate(0,-1004.3622)"><path d="m 1 1043.36 0 4 c 0 2.216 1.784 4 4 4 l 38 0 c 2.216 0 4 -1.784 4 -4 l 0 -4 c 0 2.216 -1.784 4 -4 4 l -38 0 c -2.216 0 -4 -1.784 -4 -4 z" opacity="0.1"/></g></g></svg>
